X: 39466
T: Tarbolton, The
R: reel
M: 4/4
K: Edorian
|:Eee^d e2EF|GBAF GFE2|Dddc dBAG|FDAD FEDF|
Eee^d ef g/f/e|fedf edBA|GABG FGAF|GBAF GEE2:|
|:gfef g/f/e be|g/f/e be gfef|de f/e/d adfd|ABAG FEDF|
G2BG F2AF|E2ef g/f/e fd|BcdB AFDF|GBAF GEE2:|

